icons/restaurant-2-fill.svg

<svg xmlns="http://www.w3.org/2000/svg" width="24" height="24" fill="none"><g clip-path="url(#a)"><g><path fill="#121212" d="M4.22195 3.808L10.939 10.525L8.11095 13.354L4.22095 9.464C3.47107 8.71389 3.0498 7.69666 3.0498 6.636C3.0498 5.57534 3.47107 4.55811 4.22095 3.808H4.22195ZM14.268 12.146L13.4139 13L20.485 20.071L19.0709 21.485L12 14.415L4.92895 21.485L3.51495 20.071L12.854 10.732C12.266 9.275 12.874 7.177 14.474 5.575C16.427 3.623 19.118 3.148 20.485 4.515C21.852 5.882 21.3769 8.573 19.4249 10.525C17.8229 12.127 15.7249 12.735 14.268 12.146Z"/></g></g><defs><clipPath id="a"><rect width="24" height="24" fill="white"/></clipPath></defs></svg>

<svg width="24" height="24" fill="none" xmlns="http://www.w3.org/2000/svg"><g clip-path="url(#a)"><path d="m4.222 3.808 6.717 6.717-2.828 2.829-3.89-3.89a4 4 0 0 1 0-5.656Zm10.046 8.338-.854.854 7.071 7.071-1.414 1.414L12 14.415l-7.071 7.07-1.414-1.414 9.339-9.339c-.588-1.457.02-3.555 1.62-5.157 1.953-1.952 4.644-2.427 6.011-1.06s.892 4.058-1.06 6.01c-1.602 1.602-3.7 2.21-5.157 1.621Z" /></g><defs><clipPath id="a"><path fill="#fff" d="M0 0h24v24H0z"/></clipPath></defs></svg>
